X:7011
T:The Lea Rig
O:england
M:4/4
L:1/8
Q:128
K:A
|:cBc2 E2E2|F2A3BA2|c2B3cdc|BAc2 F2F2|cB
W: A A Bm F#m E7
c2 E2E2|F2A3BA2|agf3efg|ae[c2 E2[A2|D2[A2 C2e2|
W: A A Bm A D A
fefg a2c2|dcde f2A2|B3c dcBA|c2F2 F2cB|
W: D Bm Bm F#m E7
c2E2 E2F2|A3B A2ag|f3e fgae|[c2E2 [A2D2|[A2C2 :|
W: A A Bm A D A


